!!!Genre:	Freylekhs
!!!Mode:	Major (Mixolydian)
!!!Edition:	2015
!!!Listening/dance:	dance
!!!Free rhythm?:	No
!!!Secondary Modes:	All major
!!!One_Mode:	yes
**kern
*I"P1
*clefG2
*k[f#]
*G:
*M2/4
*>A
=1
16ddLL
16ee
16ffn
16eeJJ
16ddLL
16ccJ
8bJ
=2
16bLL
16cc
16dd
16ccJJ
16bLL
16aJ
8gJ
=3
8dd
(8qaa/
16ggL)
16ffnJJ
16eeLL
16dd
16ee
16ffJJ
=4
4dd
(8qff#X/
4gg)
=5
16ddLL
16ee
16ffn
16eeJJ
16ddLL
16ccJ
8bJ
=6
16bLL
16cc
16dd
16ccJJ
16bLL
16aJ
8gJ
=7
8aL
16ddL
16ccJJ
16bLL
16g
16a
16f#JJ
=8
2g
=9:|!|:
*>B
[4dd
16ddLL]
16cc
16b
16ccJJ
=10
[4dd
16ddLL]
16cc
16b
16ccJJ
=11
16ddLL
16cc
16b
16ccJJ
16ddLL
16cc
16b
16ccJJ
=12
16ddLL
16cc
16b
16ccJJ
4dd
=13
16ddLL
16gJ
8eeJ
8ddL
16ccL
16bJJ
=14
16aLL
16b
16cc
16aJJ
16bLL
16gJ
8ddJ
=15
16ddLL
16gJ
8eeJ
8ddL
16ccL
16bJJ
=16
16aLL
16b
16cc
16aJJ
4g
=17
16ddLL
16gJ
8eeJ
8ddL
16ccL
16bJJ
=18
16aLL
16b
16cc
16aJJ
16bLL
16gJ
8ddJ
=19
16ddLL
16gJ
8eeJ
8ddL
16ccL
16bJJ
=20
16aLL
16b
16cc
16aJJ
4g
==:!|
*-
